X: 32643
T: Plethen Peswar Luf
R: hornpipe
M: 4/4
K: Amajor
|:c>B|(3AAA c>e a>ec>e|(3AAA d>f a>fd>f|(3AAA c>e a>ec>e|(3BBB c>e (3BBB c>e|
(3AAA c>e a>ec>e|(3AAA d>f a>fd>f|(3efg (3agf e>dc>B|(3Ace (3aec A2:|
|:c>e|a>ec>e a>ec>e|a>fd>f a>fd>f|a>ec>e a>ec>e|(3BBB c>e (3BBB c>e|
a>ec>e a>ec>e|a>fd>f a>fd>f|(3efg (3agf e>dc>B|(3Ace (3aec A2:|
|:c>B|(3AAA c>e (3AAA c>e|(3BBB d>f (3BBB d>f|(3AAA c>e (3AAA c>e|B>e (3ccc (3BBB c>e|
(3AAA c>e (3AAA c>e|(3BBB d>f (3BBB d>f|(3efg (3agf e>dc>B|(3Ace (3aec A2:|
|:c>e|(3aee (3cee (3aee (3cee|(3aff (3dff (3aff (3dff|(3aee (3cee (3aee (3cee|(3BBB c>e (3BBB c>e|
(3aee (3cee (3aee (3cee|(3aff (3dff (3aff (3dff|(3efg (3agf e>dc>B|(3Ace (3aec A2:|

